X: 11849
T: Elusive Ross
R: jig
M: 6/8
K: Dmajor
|:DE(F F)ED|ED(B, B,2)B,|A,B,D EDE|(_FF2) EDB,|
DE(F F)ED|ED(B, B,2)B,|A,B,D EDC|D6:|
|:D2C2A,2|B,3 B,A,B,|DEE EDE|(_FF2) EDC|
D2C2A,2|B,3 B,A,B,|DEE EDC|D6:|

